src/lib/packages/icons/src/assets/filled/arrow-forward-circle-alt.svg

<svg width="24" height="24" viewBox="0 0 24 24" fill="none" xmlns="http://www.w3.org/2000/svg">
<path d="M12 2C6.477 2 2 6.477 2 12C2 17.523 6.477 22 12 22C17.523 22 22 17.523 22 12C22 6.477 17.523 2 12 2ZM17.25 12.75C17.25 13.164 16.914 13.5 16.5 13.5H14.25C13.836 13.5 13.5 13.164 13.5 12.75C13.5 12.336 13.836 12 14.25 12H14.968C14.26 11.074 13.1459 10.5 11.9399 10.5C10.1629 10.5 8.63698 11.7021 8.22998 13.4231C8.14898 13.7681 7.84098 14 7.50098 14C7.44298 14 7.3859 13.994 7.3269 13.98C6.9239 13.884 6.67502 13.4799 6.77002 13.0769C7.33702 10.6769 9.46297 9 11.939 9C13.406 9 14.768 9.61688 15.75 10.6299V10.502C15.75 10.088 16.086 9.75195 16.5 9.75195C16.914 9.75195 17.25 10.088 17.25 10.502V12.75Z" fill="currentColor"/>
</svg>

<svg xmlns="http://www.w3.org/2000/svg" width="24" height="24" fill="none"><path fill="currentColor" d="M12 2C6.477 2 2 6.477 2 12s4.477 10 10 10 10-4.477 10-10S17.523 2 12 2Zm5.25 10.75a.75.75 0 0 1-.75.75h-2.25a.75.75 0 0 1 0-1.5h.718a3.82 3.82 0 0 0-3.028-1.5 3.793 3.793 0 0 0-3.71 2.923.749.749 0 0 1-.903.557.751.751 0 0 1-.557-.903A5.286 5.286 0 0 1 11.939 9c1.467 0 2.829.617 3.811 1.63v-.128a.75.75 0 0 1 1.5 0v2.248Z"/></svg>
